addons/popochiu/icons/baseline.svg

<svg height="16" viewBox="0 0 4.2333332 4.2333332" width="16" xmlns="http://www.w3.org/2000/svg"><g fill="#e0e0e0"><path d="m1.0565877 3.1737903v.2627904h-1.06047831v.2675859h1.06047831v.2651195h.7954956v-.2651195h2.3862132v-.2675859h-2.3862132v-.2627904z" stroke-width=".050282"/><path d="m1.5869638.25733815v.26511954h1.5907173v1.59085451h-.7953586v-1.32573491h-.5302392v-.26224228h-.2651195v.26224228h-.79549571v2.12109351h1.59085441v-.5302391h.7953586.2652567v-1.85597401-.26511954z"/></g></svg>

<?xml version="1.0" encoding="UTF-8" standalone="no"?>
<!-- Created with Inkscape (http://www.inkscape.org/) -->

<svg
   width="16"
   height="16"
   viewBox="0 0 4.2333332 4.2333332"
   version="1.1"
   id="svg1"
   inkscape:version="1.3.2 (091e20ef0f, 2023-11-25, custom)"
   sodipodi:docname="baseline.svg"
   xmlns:inkscape="http://www.inkscape.org/namespaces/inkscape"
   xmlns:sodipodi="http://sodipodi.sourceforge.net/DTD/sodipodi-0.dtd"
   xmlns="http://www.w3.org/2000/svg"
   xmlns:svg="http://www.w3.org/2000/svg">
  <sodipodi:namedview
     id="namedview1"
     pagecolor="#ffffff"
     bordercolor="#000000"
     borderopacity="0.25"
     inkscape:showpageshadow="false"
     inkscape:pageopacity="0.0"
     inkscape:pagecheckerboard="0"
     inkscape:deskcolor="#d1d1d1"
     inkscape:document-units="mm"
     shape-rendering="crispEdges"
     showborder="false"
     borderlayer="true"
     showgrid="true"
     inkscape:zoom="48.701007"
     inkscape:cx="10.810865"
     inkscape:cy="11.313934"
     inkscape:window-width="1927"
     inkscape:window-height="1375"
     inkscape:window-x="52"
     inkscape:window-y="31"
     inkscape:window-maximized="0"
     inkscape:current-layer="layer1">
    <inkscape:grid
       id="grid1"
       units="px"
       originx="0"
       originy="0"
       spacingx="0.26458332"
       spacingy="0.26458332"
       empcolor="#0099e5"
       empopacity="0.30196078"
       color="#0099e5"
       opacity="0.14901961"
       empspacing="1"
       dotted="false"
       gridanglex="30"
       gridanglez="30"
       visible="true" />
  </sodipodi:namedview>
  <defs
     id="defs1" />
  <g
     inkscape:label="Livello 1"
     inkscape:groupmode="layer"
     id="layer1">
    <path
       id="rect1"
       style="fill:#e0e0e0;stroke-width:0.0502822"
       d="M 1.0565877,3.1737903 V 3.4365807 H -0.00389061 V 3.7041666 H 1.0565877 V 3.9692861 H 1.8520833 V 3.7041666 H 4.2382965 V 3.4365807 H 1.8520833 V 3.1737903 Z" />
    <path
       id="rect39"
       style="fill:#e0e0e0;fill-opacity:1;stroke:none;stroke-width:0.0865955;stroke-dasharray:none;stroke-opacity:1"
       d="M 1.5869638,0.25733815 V 0.52245769 H 3.1776811 V 2.1133122 H 2.3823225 V 0.78757729 H 1.8520833 V 0.52533501 H 1.5869638 V 0.78757729 H 0.79146809 V 2.9086708 H 2.3823225 V 2.3784317 H 3.1776811 3.4429378 V 0.52245769 0.25733815 Z" />
  </g>
</svg>
